symbols/web/local_convenience_store/materialsymbolsoutlined/local_convenience_store_grad200fill1_48px.svg

<svg xmlns="http://www.w3.org/2000/svg" height="48" width="48"><path d="M15.8 36.45h6.1v-2.1h-4V32.2h4v-6.1h-6.1v2.1h4v1.9h-4Zm14.35 0h2.1V26.1h-2.1v4.05H28.2V26.1h-2.1v6.15h4.05Zm12.35-14.2v16.6q0 1.45-1.1 2.55-1.1 1.1-2.55 1.1H9.1q-1.5 0-2.575-1.1-1.075-1.1-1.075-2.55v-16.6Q3.9 20.95 3.5 19.1q-.4-1.85.2-3.65l2.25-6.9q.45-1.4 1.425-2.2.975-.8 2.375-.8H38q1.4 0 2.5.825t1.55 2.175l2.25 6.9q.6 1.8.2 3.725-.4 1.925-2 3.075ZM28.55 20.2q1.25 0 2.225-.8.975-.8.775-2.15L30.3 9.2h-4.45v8q0 1.2.75 2.1.75.9 1.95.9Zm-9.4 0q1.2 0 2.125-.875T22.2 17.2v-8h-4.5l-1.25 8q-.25 1.45.6 2.225.85.775 2.1.775Zm-9.25 0q1.05 0 1.875-.775t.975-1.875L14 9.2H9.6l-2.3 7.1q-.55 1.55.325 2.725T9.9 20.2Zm28.15 0q1.5 0 2.3-1.15.8-1.15.35-2.75l-2.2-7.1H34l1.25 8.35q.1 1.1.9 1.875.8.775 1.9.775Z"/></svg>

<svg xmlns="http://www.w3.org/2000/svg" height="48" width="48"><path d="M15.8 36.45H21.9V34.35H17.9V32.2H21.9V26.1H15.8V28.2H19.8V30.1H15.8ZM30.15 36.45H32.25V26.1H30.15V30.15H28.2V26.1H26.1V32.25H30.15ZM42.5 22.25V38.85Q42.5 40.3 41.4 41.4Q40.3 42.5 38.85 42.5H9.1Q7.6 42.5 6.525 41.4Q5.45 40.3 5.45 38.85V22.25Q3.9 20.95 3.5 19.1Q3.1 17.25 3.7 15.45L5.95 8.55Q6.4 7.15 7.375 6.35Q8.35 5.55 9.75 5.55H38Q39.4 5.55 40.5 6.375Q41.6 7.2 42.05 8.55L44.3 15.45Q44.9 17.25 44.5 19.175Q44.1 21.1 42.5 22.25ZM28.55 20.2Q29.8 20.2 30.775 19.4Q31.75 18.6 31.55 17.25L30.3 9.2H25.85V17.2Q25.85 18.4 26.6 19.3Q27.35 20.2 28.55 20.2ZM19.15 20.2Q20.35 20.2 21.275 19.325Q22.2 18.45 22.2 17.2V9.2H17.7L16.45 17.2Q16.2 18.65 17.05 19.425Q17.9 20.2 19.15 20.2ZM9.9 20.2Q10.95 20.2 11.775 19.425Q12.6 18.65 12.75 17.55L14 9.2H9.6Q9.6 9.2 9.6 9.2Q9.6 9.2 9.6 9.2L7.3 16.3Q6.75 17.85 7.625 19.025Q8.5 20.2 9.9 20.2ZM38.05 20.2Q39.55 20.2 40.35 19.05Q41.15 17.9 40.7 16.3L38.5 9.2Q38.5 9.2 38.5 9.2Q38.5 9.2 38.5 9.2H34L35.25 17.55Q35.35 18.65 36.15 19.425Q36.95 20.2 38.05 20.2Z"/></svg>
